X:1
T:Title
%%score ( 1 2 ) { 3 | 4 }
L:1/8
Q:1/4=115
M:4/4
K:F
V:1 treble nm="Grand Piano, Staff 1"
V:2 treble 
V:3 bass nm="Choir Pad, O Welt, sieh hier"
V:4 bass 
V:1
 [DA]4 [DF]2 D2 | [EG]2 [DF]2 E2- [^CE-][=B,E] | [^CE]2 [CE]2 [DF]2 [DF]2 | %3
w: By~Heinrich~Friese,~1703 * *|||
 [EG]2 [DG]2 A2- [^CA-][=B,A] | [^CA]4 z2 [EA]2 | [E=B]2 [Ec]2 [FB]2 [EB]2 | [^CA]4 z4 | %7
w: ||||
 [FA]4 [EG]2 [DF]2 | [^CE]2 [DF]2 G2- [=B,G]2 | [CG]2 [CE]2 [CF]2 [DF]2 | %10
w: |||
 [EG]2 [DG]2 A2- [^CA-][=B,A] | [^CA]4 z2 [DA]2 | [FB]2 [FA]2 [DG]2 [DF]2 | [DE]2 [^CE]2 [A,D]4- | %14
w: ||||
 [A,D]4 z4 |] %15
w: |
V:2
 x8 | z4 D2 z2 | x8 | z4 D2 z2 | x8 | x8 | x8 | x8 | z4 D2 z2 | x8 | z4 D2 z2 | x8 | x8 | x8 | %14
 x8 |] %15
V:3
 F,4 A,2 G,2 | B,2 A,2 A,4 | A,2 A,2 A,2 A,2 | C2 G,2 F,2 E,D, | E,4 z2 C2 | =B,2 A,2 A,2 _A,2 | %6
 A,4 z4 | C4 C2 A,2 | A,2 A,2 G,4 | E,2 G,2 A,2 A,2 | C2 G,2 F,2 E,D, | E,4 z2 F,2 | %12
 D2 C2 B,2 A,2 | A,2 A,2 ^F,4- | F,4 z4 |] %15
V:4
 D,4 D,2 B,,2 | G,,2 D,2 A,,4 | A,,2 A,,2 D,2 D,2 | C,2 B,,2 A,,4 | A,,4 z2 A,2 | _A,2 z2 D,2 E,2 | %6
 A,,4 z4 | F,4 C,2 D,2 | A,,2 D,2 D,2 G,,2 | C,2 C,2 A,,2 D,2 | C,2 B,,2 A,,4 | A,,4 z2 D,2 | %12
 B,,2 F,,2 G,,2 D,2 | A,,2 A,,2 D,4- | D,4 z4 |] %15

